icons/desktop/16/svg/extension-critical-16.svg

<svg width="20" height="20" viewBox="0 0 20 20" fill="none" xmlns="http://www.w3.org/2000/svg">
<path fill-rule="evenodd" clip-rule="evenodd" d="M14.375 10.75C16.581 10.75 18.375 12.544 18.375 14.75C18.375 16.956 16.581 18.75 14.375 18.75C12.169 18.75 10.375 16.956 10.375 14.75C10.375 12.544 12.169 10.75 14.375 10.75ZM14.375 15.875C14.0298 15.875 13.75 16.1548 13.75 16.5C13.75 16.8452 14.0298 17.125 14.375 17.125C14.7202 17.125 15 16.8452 15 16.5C15 16.1548 14.7202 15.875 14.375 15.875ZM14.375 12.375C14.0298 12.375 13.75 12.6548 13.75 13V14.5C13.75 14.8452 14.0298 15.125 14.375 15.125C14.7202 15.125 15 14.8452 15 14.5V13C15 12.6548 14.7202 12.375 14.375 12.375Z" fill="black"/>
<path d="M9.199 15.478C7.657 15.511 6.114 15.449 4.594 15.265C3.971 15.189 3.5 14.655 3.5 14.021V13.5H3.907C5.174 13.5 6.273 12.603 6.467 11.414C6.586 10.681 6.381 9.93998 5.905 9.38098C5.428 8.82098 4.734 8.50098 4 8.50098H3.5V7.97798C3.5 7.34598 3.962 6.81298 4.573 6.73898C5.271 6.65498 5.975 6.59198 6.667 6.55298C7.064 6.53098 7.375 6.20198 7.375 5.80398V4.50098C7.375 3.94998 7.823 3.50098 8.375 3.50098H8.625C9.177 3.50098 9.625 3.94998 9.625 4.50098V5.80598C9.625 6.20398 9.936 6.53198 10.333 6.55498C11.031 6.59498 11.729 6.65598 12.409 6.73798C13.031 6.81298 13.5 7.34698 13.5 7.98098V9.58998C13.786 9.54198 14.075 9.50098 14.375 9.50098C14.589 9.50098 14.793 9.53898 15 9.56398V7.97998C15 6.58798 13.963 5.41298 12.589 5.24798C12.108 5.18998 11.617 5.14198 11.125 5.10398V4.50098C11.125 3.12298 10.004 2.00098 8.625 2.00098H8.375C6.996 2.00098 5.875 3.12298 5.875 4.50098V5.10298C5.382 5.14098 4.886 5.18998 4.394 5.24998C3.03 5.41598 2 6.58798 2 7.97798V9.25098C2 9.66498 2.336 10.001 2.75 10.001H4C4.294 10.001 4.572 10.129 4.763 10.354C4.956 10.581 5.035 10.873 4.987 11.175C4.911 11.646 4.447 12.002 3.908 12.002H2.751C2.337 12.002 2.001 12.338 2.001 12.752V14.023C2.001 15.415 3.039 16.59 4.415 16.756C5.765 16.919 7.14 17.002 8.501 17.002C8.877 17.002 9.256 16.981 9.634 16.968C9.416 16.504 9.273 16.005 9.2 15.48L9.199 15.478Z" fill="black"/>
</svg>

<!-- This Source Code Form is subject to the terms of the Mozilla Public
   - License, v. 2.0. If a copy of the MPL was not distributed with this
   - file, You can obtain one at http://mozilla.org/MPL/2.0/. -->
<svg xmlns="http://www.w3.org/2000/svg" width="20" height="20" fill="context-fill" fill-opacity="context-fill-opacity" viewBox="0 0 20 20">
    <path fill-rule="evenodd" d="M14.375 10.75c2.206 0 4 1.794 4 4s-1.794 4-4 4-4-1.794-4-4 1.794-4 4-4m0 5.125a.625.625 0 1 0 0 1.25.625.625 0 0 0 0-1.25m0-3.5a.625.625 0 0 0-.625.625v1.5a.625.625 0 1 0 1.25 0V13a.625.625 0 0 0-.625-.625" clip-rule="evenodd" />
    <path d="M9.199 15.478a32.6 32.6 0 0 1-4.605-.213A1.25 1.25 0 0 1 3.5 14.021V13.5h.407c1.267 0 2.366-.897 2.56-2.086A2.498 2.498 0 0 0 4 8.501h-.5v-.523c0-.632.462-1.165 1.073-1.239a33 33 0 0 1 2.094-.186.75.75 0 0 0 .708-.749V4.501c0-.551.448-1 1-1h.25c.552 0 1 .449 1 1v1.305a.75.75 0 0 0 .708.749c.698.04 1.396.101 2.076.183A1.247 1.247 0 0 1 13.5 7.981V9.59c.286-.048.575-.089.875-.089.214 0 .418.038.625.063V7.98a2.75 2.75 0 0 0-2.411-2.732 34 34 0 0 0-1.464-.144v-.603c0-1.378-1.121-2.5-2.5-2.5h-.25a2.503 2.503 0 0 0-2.5 2.5v.602q-.741.057-1.481.147A2.74 2.74 0 0 0 2 7.978v1.273c0 .414.336.75.75.75H4a1.004 1.004 0 0 1 .987 1.174c-.076.471-.54.827-1.079.827H2.751a.75.75 0 0 0-.75.75v1.271a2.75 2.75 0 0 0 2.414 2.733 34 34 0 0 0 4.086.246c.376 0 .755-.021 1.133-.034A5.2 5.2 0 0 1 9.2 15.48z" />
</svg>
